web/packages/design/src/ResourceIcon/assets/ec2.svg

<svg width="72" height="72" viewBox="0 0 72 72" fill="none" xmlns="http://www.w3.org/2000/svg">
<path fill-rule="evenodd" clip-rule="evenodd" d="M7.6599 13.4082L4.5 14.904V57.096L7.6599 58.5918L20.448 37.0935L7.6599 13.4082Z" fill="#9D5025"/>
<path fill-rule="evenodd" clip-rule="evenodd" d="M15.0249 56.9565L7.66016 58.5918V13.4082L15.0249 15.0003V56.9565Z" fill="#F58536"/>
<path fill-rule="evenodd" clip-rule="evenodd" d="M11.1436 11.7547L15.0244 9.92676L33.4591 37.8979L15.0244 62.0728L11.1436 60.2449V11.7547Z" fill="#9D5025"/>
<path fill-rule="evenodd" clip-rule="evenodd" d="M24.2089 59.6149L15.0244 62.0728V9.92676L24.2089 12.3928V59.6149Z" fill="#F58536"/>
<path fill-rule="evenodd" clip-rule="evenodd" d="M19.3486 7.8712L24.2086 5.5708L51.403 40.9588L24.2086 66.4279L19.3486 64.1275V7.8712Z" fill="#9D5025"/>
<path fill-rule="evenodd" clip-rule="evenodd" d="M35.99 62.3527L24.209 66.4288V5.5708L35.99 9.655V62.3527Z" fill="#F58536"/>
<path fill-rule="evenodd" clip-rule="evenodd" d="M29.707 2.9736L35.9908 0L65.4118 38.0376L35.9908 72L29.707 69.0264V2.9736Z" fill="#9D5025"/>
<path fill-rule="evenodd" clip-rule="evenodd" d="M67.4992 57.0879L35.9902 72V0L67.4992 14.913V57.0879Z" fill="#F58536"/>
</svg>

<svg xmlns="http://www.w3.org/2000/svg" width="72" height="72" fill="none" viewBox="0 0 72 72"><path fill="#9d5025" fill-rule="evenodd" d="M7.66 13.408 4.5 14.904v42.192l3.16 1.496 12.788-21.498z" clip-rule="evenodd"/><path fill="#f58536" fill-rule="evenodd" d="M15.025 56.957 7.66 58.592V13.408L15.025 15z" clip-rule="evenodd"/><path fill="#9d5025" fill-rule="evenodd" d="m11.144 11.755 3.88-1.828 18.435 27.97-18.435 24.176-3.88-1.828z" clip-rule="evenodd"/><path fill="#f58536" fill-rule="evenodd" d="m24.209 59.615-9.185 2.458V9.927l9.185 2.466z" clip-rule="evenodd"/><path fill="#9d5025" fill-rule="evenodd" d="m19.349 7.871 4.86-2.3 27.194 35.388-27.194 25.469-4.86-2.3z" clip-rule="evenodd"/><path fill="#f58536" fill-rule="evenodd" d="m35.99 62.353-11.781 4.076V5.57L35.99 9.655z" clip-rule="evenodd"/><path fill="#9d5025" fill-rule="evenodd" d="M29.707 2.974 35.991 0l29.42 38.038L35.992 72l-6.284-2.974z" clip-rule="evenodd"/><path fill="#f58536" fill-rule="evenodd" d="M67.5 57.088 35.99 72V0L67.5 14.913z" clip-rule="evenodd"/></svg>
